X:4918
L:1/8
M:2/2
K:Gmin
 d | B2 (G>A) (B>cd)(B | A>)FAc fcA(c | BG)DG Bdgd | fc (d/c/B/A/) (BG)G :| d | gdBd (g>ab)g | 
 afTc>B TA>FcA | (DG)(BG) (dB)(gd) | f(dTc>A) BGGd | gdBd g(bTa>g) | fcaf Tc>AFA | BGdB gdbg | 
 f(dTc>A) BGG |: (c | B)GdG BGd(G | AF)cF fc(AF | G)ABc dgbg | f(dTc>A) BGG :| d | 
 gd (g/a/b) (gd)bd | fc (f/g/a) (fc)af | (gd)(bg) (f>ga)g | f(d9/4Tc/A/) BGGd | (gd)bd (Bd)bd | 
 (fc)ac (Ac)ac | (Tg>f)ba (Tg>f)gd | (Tc>A)(dc) BGG ||

